X:17
T: Nem cserélek
O: Tornyospálca (Szabolcs-Szatmár), Bódi Károly "Kama" (57), 1953.05
M:4/4
L:1/4
Q: "Tempo guisto" 1/4=84
K: G
d>A BA | A>D FE | G/F/D/E/ | F<D Dz | 
d>A B<A | A>D F<E | G/F/D/F/ | F<D D z | 
GF E<F | dAB<A | AG B<A | E<E E z | 
d>A BA | A>D FE | G/F/D/E/ | F<D Dz | 

